src/svg/shopping-basket.svg

<svg height="1000" width="1125.0" xmlns="http://www.w3.org/2000/svg">
    <path d="m1125 421.9v31.2c0 25.9-21 46.9-46.9 46.9h-15.6l-51 357c-6.6 46.2-46.2 80.5-92.8 80.5h-712.4c-46.6 0-86.2-34.3-92.8-80.5l-51-357h-15.6c-25.9 0-46.9-21-46.9-46.9v-31.2c0-25.9 21-46.9 46.9-46.9h131.5l208.6-286.8c20.3-27.9 59.3-34 87.3-13.7 27.9 20.3 34.1 59.3 13.7 87.3l-155 213.2h459l-155-213.2c-20.4-28-14.2-67 13.7-87.3 28-20.3 67-14.2 87.3 13.7l208.6 286.8h131.5c25.9 0 46.9 21 46.9 46.9z m-515.6 343.7v-218.7c0-25.9-21-46.9-46.9-46.9s-46.9 21-46.9 46.9v218.7c0 25.9 21 46.9 46.9 46.9s46.9-21 46.9-46.9z m218.7 0v-218.7c0-25.9-21-46.9-46.8-46.9s-46.9 21-46.9 46.9v218.7c0 25.9 21 46.9 46.9 46.9s46.8-21 46.8-46.9z m-437.5 0v-218.7c0-25.9-21-46.9-46.8-46.9s-46.9 21-46.9 46.9v218.7c0 25.9 21 46.9 46.9 46.9s46.8-21 46.8-46.9z" />
  </svg>

<svg height="1000" width="1125" xmlns="http://www.w3.org/2000/svg"><path d="M1125 421.9v31.2c0 25.9 -21 46.9 -46.9 46.9h-15.6l-51 357c-6.6 46.2 -46.2 80.5 -92.8 80.5H206.3c-46.6 0 -86.2 -34.3 -92.8 -80.5l-51 -357H46.9C21 500 0 479 0 453.1v-31.2C0 396 21 375 46.9 375h131.5L387 88.2c20.3 -27.9 59.3 -34 87.3 -13.7 27.9 20.3 34 59.3 13.7 87.3L333 375h459L637 161.8c-20.3 -28 -14.2 -67 13.7 -87.3 28 -20.3 67 -14.2 87.3 13.7L946.6 375h131.5c25.9 0 46.9 21 46.9 46.9zM609.4 765.6V546.9c0 -25.9 -21 -46.9 -46.9 -46.9s-46.9 21 -46.9 46.9v218.7c0 25.9 21 46.9 46.9 46.9s46.9 -21 46.9 -46.9zm218.7 0V546.9c0 -25.9 -21 -46.9 -46.8 -46.9s-46.9 21 -46.9 46.9v218.7c0 25.9 21 46.9 46.9 46.9s46.8 -21 46.8 -46.9zm-437.5 0V546.9c0 -25.9 -21 -46.9 -46.8 -46.9s-46.9 21 -46.9 46.9v218.7c0 25.9 21 46.9 46.9 46.9s46.8 -21 46.8 -46.9z"/></svg>
